src/assets/media/image/twitter.svg

<svg width="24" height="24" viewBox="0 0 24 24"  xmlns="http://www.w3.org/2000/svg">
<path style="fill: #000" fill-opacity="0.6" fill-rule="evenodd" clip-rule="evenodd" d="M23.998 4.74933C23.115 5.1312 22.166 5.38936 21.17 5.50431C22.187 4.91104 22.968 3.97098 23.335 2.8507C22.384 3.40012 21.33 3.79953 20.209 4.01482C19.311 3.08255 18.031 2.5 16.615 2.5C13.437 2.5 11.101 5.38936 11.819 8.38977C7.727 8.18909 4.098 6.28071 1.67 3.37772C0.38 5.53256 1.001 8.3547 3.194 9.78184C2.387 9.75748 1.628 9.54122 0.964 9.18176C0.911 11.4038 2.546 13.4807 4.913 13.9454C4.22 14.1285 3.461 14.1704 2.689 14.0272C3.316 15.9327 5.134 17.3199 7.289 17.3588C5.219 18.9389 2.612 19.6452 0 19.3452C2.179 20.7051 4.767 21.5 7.548 21.5C16.69 21.5 21.855 13.9775 21.543 7.23149C22.505 6.55542 23.34 5.70985 24 4.74836L23.998 4.74933Z" />
</svg>

<svg xmlns="http://www.w3.org/2000/svg" width="24" height="24"><path fill-opacity=".6" fill-rule="evenodd" d="M23.998 4.75a10 10 0 0 1-2.828.754 4.83 4.83 0 0 0 2.165-2.653c-.951.55-2.005.949-3.126 1.164A4.98 4.98 0 0 0 16.615 2.5c-3.178 0-5.514 2.89-4.796 5.89-4.092-.2-7.721-2.11-10.149-5.012-1.29 2.155-.669 4.977 1.524 6.404a5 5 0 0 1-2.23-.6c-.053 2.222 1.582 4.299 3.949 4.763a5.1 5.1 0 0 1-2.224.082c.627 1.906 2.445 3.293 4.6 3.332A10.1 10.1 0 0 1 0 19.345 14.2 14.2 0 0 0 7.548 21.5c9.142 0 14.307-7.523 13.995-14.269A9.9 9.9 0 0 0 24 4.748z" clip-rule="evenodd" style="fill:#000"/></svg>
